packages/tokens/icons/journey/size32Px.svg

<svg viewBox="0 0 32 32" fill="none" xmlns="http://www.w3.org/2000/svg" width="1em" height="1em"><path d="M13.7143 18.2857L12 20C9.79086 22.2091 6.20914 22.2091 4 20V20C1.79086 17.7909 1.79086 14.2091 4 12V12C6.20914 9.79086 9.79086 9.79086 12 12L20 20C22.2091 22.2091 25.7909 22.2091 28 20V20C30.2091 17.7909 30.2091 14.2091 28 12V12C25.7909 9.79086 22.2091 9.79086 20 12L18.2857 13.7143" stroke="currentColor" stroke-linecap="round"/></svg>

<svg xmlns="http://www.w3.org/2000/svg" fill="none" viewBox="0 0 32 32" width="1em" height="1em"><path stroke="currentColor" stroke-linecap="round" d="M13.714 18.286 12 20a5.657 5.657 0 0 1-8 0v0a5.657 5.657 0 0 1 0-8v0a5.657 5.657 0 0 1 8 0l8 8a5.657 5.657 0 0 0 8 0v0a5.657 5.657 0 0 0 0-8v0a5.657 5.657 0 0 0-8 0l-1.714 1.714"/></svg>
